icons/dollar-bill-two-color.svg

<?xml version="1.0" encoding="UTF-8"?><svg xmlns="http://www.w3.org/2000/svg" viewBox="0 0 50 50"><g id="uuid-04292bd6-9893-4944-a2b6-c374d1aa7344"><g><path d="M11.56,24.62c0-.05-.04-.09-.09-.09s-.09,.04-.09,.09c0,.1,.19,.1,.19,0Z"/><path d="M24.96,23.85c-.98-.29-1.33-.43-1.33-.95,0-.48,.31-.77,.93-.77,.35,0,.59,.09,.75,.23,.28,.25,.31,.59,.32,.67h1.39c-.07-1.02-.67-1.82-2.04-1.95v-.92h-.72v.91c-1.17,.1-2.05,.79-2.05,1.97,0,1,.55,1.58,2.16,2.03,1,.28,1.38,.54,1.38,1.17,0,.49-.28,.83-1.07,.83-.74,0-1.15-.41-1.25-1.04h-1.4c.08,1.26,.92,2,2.22,2.11v.91h.72v-.91c1.56-.12,2.22-1.02,2.22-2.07,0-1-.46-1.7-2.24-2.22Z" fill="#ffcd00"/><path d="M3.36,16.03v20.69H49.39V16.03H3.36Zm21.27,15.22c-3.65,0-6.63-2.97-6.63-6.63s2.97-6.63,6.63-6.63,6.63,2.97,6.63,6.63-2.97,6.63-6.63,6.63Z" fill="#ffcd00"/><path d="M48.14,13.28H1.11c-.28,0-.5,.22-.5,.5v21.69c0,.28,.22,.5,.5,.5H48.14c.28,0,.5-.22,.5-.5V13.78c0-.28-.22-.5-.5-.5Zm-.5,21.69H1.61V14.28H47.64v20.69Z"/><path d="M4.51,28.74c1.6,0,2.9,1.35,2.9,3.01,0,.28,.22,.5,.5,.5H41.45c.28,0,.5-.22,.5-.5,0-1.63,1.23-2.95,2.81-3,.27,0,.48-.23,.48-.5v-7.24c0-.28-.22-.5-.5-.5-1.6,0-2.9-1.35-2.9-3.01,0-.28-.22-.5-.5-.5H7.91c-.28,0-.5,.22-.5,.5,0,1.66-1.3,3.01-2.9,3.01-.28,0-.5,.22-.5,.5v7.22c0,.28,.22,.5,.5,.5Zm36.36-10.74c.22,1.81,1.61,3.25,3.37,3.48v6.32c-1.72,.28-3.05,1.68-3.26,3.46h-12.59c2.3-1.31,3.87-3.79,3.87-6.63s-1.56-5.31-3.87-6.63h12.48Zm-16.24,13.25c-3.65,0-6.63-2.97-6.63-6.63s2.97-6.63,6.63-6.63,6.63,2.97,6.63,6.63-2.97,6.63-6.63,6.63ZM5.01,21.48c1.76-.23,3.15-1.67,3.37-3.48h12.48c-2.3,1.31-3.87,3.79-3.87,6.63s1.56,5.31,3.87,6.63H8.38c-.22-1.81-1.62-3.25-3.37-3.48v-6.29Z"/><path d="M37.79,23.53c-.6,0-1.09,.49-1.09,1.09s.49,1.09,1.09,1.09,1.09-.49,1.09-1.09-.49-1.09-1.09-1.09Z"/><path d="M24.96,23.85c-.98-.29-1.33-.43-1.33-.95,0-.48,.31-.77,.93-.77,.35,0,.59,.09,.75,.23,.28,.25,.31,.59,.32,.67h1.39c-.07-1.02-.67-1.82-2.04-1.95v-.92h-.72v.91c-1.17,.1-2.05,.79-2.05,1.97,0,1,.55,1.58,2.16,2.03,1,.28,1.38,.54,1.38,1.17,0,.49-.28,.83-1.07,.83-.74,0-1.15-.41-1.25-1.04h-1.4c.08,1.26,.92,2,2.22,2.11v.91h.72v-.91c1.56-.12,2.22-1.02,2.22-2.07,0-1-.46-1.7-2.24-2.22Z"/><path d="M11.46,23.53c-.6,0-1.09,.49-1.09,1.09s.49,1.09,1.09,1.09,1.09-.49,1.09-1.09-.49-1.09-1.09-1.09Z"/></g></g><g id="uuid-f8f8d9a5-8e8d-4334-8c40-9f2ef55b6ded"><text transform="translate(.22 55.09)" font-family="Roboto-Regular, Roboto" font-size="6"><tspan x="0" y="0">dollar-bill</tspan></text></g></svg>

<svg xmlns="http://www.w3.org/2000/svg" viewBox="0 0 50 50"><g id="a54376a7-e2ff-409b-8caa-10f97371ae44" data-name="ICONS"><path d="M11.56,24.62a.09.09,0,0,0-.1-.09.09.09,0,0,0-.09.09C11.37,24.73,11.56,24.73,11.56,24.62Z" fill="#231f20"/><path d="M25,23.85c-1-.28-1.33-.43-1.33-1s.31-.77.93-.77a1.1,1.1,0,0,1,.75.23.94.94,0,0,1,.32.67H27a2,2,0,0,0-2-2v-.92h-.71v.91a2,2,0,0,0-2.05,2c0,1,.55,1.58,2.16,2,1,.28,1.38.54,1.38,1.17s-.27.83-1.06.83a1.15,1.15,0,0,1-1.25-1h-1.4a2.19,2.19,0,0,0,2.22,2.12v.91H25v-.91c1.56-.12,2.22-1,2.22-2.08S26.74,24.37,25,23.85Z" fill="#fdd600"/><path d="M3.36,16V36.72h46V16ZM24.62,31.25a6.63,6.63,0,1,1,6.63-6.63A6.63,6.63,0,0,1,24.62,31.25Z" fill="#fdd600"/><path d="M48.14,13.28h-47a.5.5,0,0,0-.5.5V35.47a.5.5,0,0,0,.5.5h47a.5.5,0,0,0,.5-.5V13.78A.5.5,0,0,0,48.14,13.28ZM47.64,35h-46V14.28h46Z" fill="#231f20"/><path d="M4.51,28.74a3,3,0,0,1,2.9,3,.5.5,0,0,0,.5.5H41.45a.5.5,0,0,0,.5-.5,2.94,2.94,0,0,1,2.81-3,.5.5,0,0,0,.48-.5V21a.5.5,0,0,0-.5-.5,3,3,0,0,1-2.9-3,.5.5,0,0,0-.5-.5H7.91a.5.5,0,0,0-.5.5,3,3,0,0,1-2.9,3A.5.5,0,0,0,4,21v7.23A.5.5,0,0,0,4.51,28.74ZM40.87,18a4,4,0,0,0,3.37,3.48V27.8A3.93,3.93,0,0,0,41,31.25H28.39a7.62,7.62,0,0,0,0-13.25ZM24.62,31.25a6.63,6.63,0,1,1,6.63-6.63A6.63,6.63,0,0,1,24.62,31.25ZM5,21.48A4,4,0,0,0,8.38,18H20.86a7.62,7.62,0,0,0,0,13.25H8.38A4,4,0,0,0,5,27.77Z" fill="#231f20"/><path d="M37.79,23.53a1.1,1.1,0,1,0,1.09,1.09A1.09,1.09,0,0,0,37.79,23.53Z" fill="#231f20"/><path d="M25,23.85c-1-.28-1.33-.43-1.33-1s.31-.77.93-.77a1.1,1.1,0,0,1,.75.23.94.94,0,0,1,.32.67H27a2,2,0,0,0-2-2v-.92h-.71v.91a2,2,0,0,0-2.05,2c0,1,.55,1.58,2.16,2,1,.28,1.38.54,1.38,1.17s-.27.83-1.06.83a1.15,1.15,0,0,1-1.25-1h-1.4a2.19,2.19,0,0,0,2.22,2.12v.91H25v-.91c1.56-.12,2.22-1,2.22-2.08S26.74,24.37,25,23.85Z" fill="#231f20"/><path d="M11.46,23.53a1.1,1.1,0,1,0,1.1,1.09A1.09,1.09,0,0,0,11.46,23.53Z" fill="#231f20"/></g><g id="bac0073c-edd2-40e6-b708-7b4e036fe80c" data-name="LABELS"><text transform="translate(0.22 55.09)" font-size="6" fill="#231f20" font-family="Roboto-Regular, Roboto">dollar-bill</text></g></svg>
